X: 1
T: Con Carthy's Favourite
M: 12/8
L: 1/8
R: slide
K: Dmaj
B2A Bcd B2A F2A | B2A Bcd e3 e3 |
B2A Bcd B2A F2G | AFF D2F E3 E3 :|
|: f2e d2c B2A F2e | f2e def e3 e2g |
f2e d2c B2A F2G | AFF D2F E3 E3:|
